F[ERK1
CUT[JETZT KOMMT DIE ZEIT]
REG[Europa, Mitteleuropa, Deutschland, Brandenburg; Sachsen]
KEY[E0537A 08  G 4/4]
MEL[-5_  1_1_3_53  2_.-7-5_
    -5_  1_1_3_35  2__0_
    23  4_6_4_2_  3_5_3_
    13  2_4_2_-7_  1__0_ //] >>
FCT[Liebes - Lied]
